X:230
T: SIE SOLLEN IHN NICHT HABEN
N: F0399
O: Europa, Mitteleuropa, Deutschland
R: Vaterlands -, Heimat - Lied, nationalistisch
M: 4/4
L: 1/8
K: F
cA | F2E2F2G2 | A3GF2
GA | B2A2G2F2 | c6
^c2 | d3_ed2c2 | B3AG2
AB | c2c2E2E2 | F4z2
AG | G2c2=B2d2 | c3GG2
c=B | A2c2=B2A2 | E4z2
e2 | f3ed2c2 | =B2A2G2
cB | A3dc2=B2 | c4z2
cA | F2E2F2G2 | A3GF2
GA | B2A2G2F2 | c6
^c2 | d3_ed2c2 | B3AG2
AB | c2c2E2E2 | F6

@@@ Tune index: 5661
